icons/logo.svg

<?xml version="1.0" encoding="UTF-8" standalone="no"?>
<svg width="796px" height="586px" viewBox="0 0 796 586" version="1.1" xmlns="http://www.w3.org/2000/svg" xmlns:xlink="http://www.w3.org/1999/xlink" xmlns:sketch="http://www.bohemiancoding.com/sketch/ns">
    <!-- Generator: Sketch 3.1 (8751) - http://www.bohemiancoding.com/sketch -->
    <title>Rectangle 1</title>
    <desc>Created with Sketch.</desc>
    <defs></defs>
    <g id="Logo" stroke="none" stroke-width="1" fill="none" fill-rule="evenodd" sketch:type="MSPage">
        <g id="1024" sketch:type="MSArtboardGroup" transform="translate(-114.000000, -129.000000)" fill="#50E3C2">
            <path d="M124.007561,372.872093 C118.480538,372.872093 114,377.34798 114,382.865349 L114,704.506744 C114,710.025867 118.470139,714.5 124.007561,714.5 L656.812173,714.5 C662.339197,714.5 666.819734,710.024113 666.819734,704.506744 L666.819734,382.865349 C666.819734,377.346226 662.349595,372.872093 656.812173,372.872093 L124.007561,372.872093 Z M691.451896,443.695757 C686.189839,445.364606 681.924099,451.203064 681.924099,456.723751 L681.924099,632.715024 C681.924099,638.241338 686.201391,644.067424 691.469944,645.725512 L900.454154,711.495788 C905.726179,713.154968 910,710.028197 910,704.505162 L910,384.378559 C910,378.858563 905.735176,375.7363 900.472203,377.40544 L691.451896,443.695757 Z M268.819734,357.755814 C331.801155,357.755814 382.857685,306.65901 382.857685,243.627907 C382.857685,180.596804 331.801155,129.5 268.819734,129.5 C205.838313,129.5 154.781784,180.596804 154.781784,243.627907 C154.781784,306.65901 205.838313,357.755814 268.819734,357.755814 Z M512,357.755814 C574.981421,357.755814 626.037951,306.65901 626.037951,243.627907 C626.037951,180.596804 574.981421,129.5 512,129.5 C449.018579,129.5 397.962049,180.596804 397.962049,243.627907 C397.962049,306.65901 449.018579,357.755814 512,357.755814 Z" id="Rectangle-1" sketch:type="MSShapeGroup"></path>
        </g>
    </g>
</svg>

<?xml version="1.0" encoding="utf-8"?>
<!-- Generator: Adobe Illustrator 17.0.0, SVG Export Plug-In . SVG Version: 6.00 Build 0)  -->
<!DOCTYPE svg PUBLIC "-//W3C//DTD SVG 1.1//EN" "http://www.w3.org/Graphics/SVG/1.1/DTD/svg11.dtd">
<svg version="1.1" id="Layer_1" xmlns:sketch="http://www.bohemiancoding.com/sketch/ns"
	 xmlns="http://www.w3.org/2000/svg" xmlns:xlink="http://www.w3.org/1999/xlink" x="0px" y="0px" width="796px" height="585px"
	 viewBox="0 0.5 796 585" enable-background="new 0 0.5 796 585" xml:space="preserve">
<g id="Logo" sketch:type="MSPage">
	<g id="_x31_024" transform="translate(-114.000000, -129.000000)" sketch:type="MSArtboardGroup">
		<path id="Rectangle-1" sketch:type="MSShapeGroup" fill="#50E3C2" d="M124.008,372.872c-5.527,0-10.008,4.476-10.008,9.993
			v321.641c0,5.519,4.47,9.993,10.008,9.993h532.805c5.527,0,10.008-4.476,10.008-9.993V382.865c0-5.519-4.47-9.993-10.008-9.993
			H124.008z M691.452,443.696c-5.262,1.669-9.528,7.507-9.528,13.028v175.991c0,5.526,4.277,11.352,9.546,13.01l208.984,65.77
			c5.272,1.659,9.546-1.468,9.546-6.991V384.379c0-5.52-4.265-8.642-9.528-6.973L691.452,443.696z M268.82,357.756
			c62.981,0,114.038-51.097,114.038-114.128S331.801,129.5,268.82,129.5s-114.038,51.097-114.038,114.128
			S205.838,357.756,268.82,357.756z M512,357.756c62.981,0,114.038-51.097,114.038-114.128S574.981,129.5,512,129.5
			s-114.038,51.097-114.038,114.128S449.019,357.756,512,357.756z"/>
	</g>
</g>
</svg>
